X: 8124
T: Controversial, The
R: reel
M: 4/4
K: Gmajor
|:B3 e dB B2|gabg abge|d2 Bd gedB|A2 GB ABGA|
Bdde dB B2|gabg abge|dGBd gedB|GBAF G2 GA:|
|:BddB A2 BA|GEDE GABd|eaaf gedB|GBdB A2 GA|
BddB AdBA|GEDE GABd|bgaf gedB|GBAF G4:|

